!!!OTL: Buda haozi lengle tai
!!!ARE: Asia, China,ÿJiangsu, Taixing
!! III, 476
!!!SCT: C1580
!!!YEM: Copyright 1995, estate of Helmut Schaffrath.
**kern
*ICvox
*Ivox
!! Mixed meters:  2/4; 3/4
*M3/4
*k[f#]
*G:
{8bb
16aa
16bb
[4aa
=1
2aa]
=2
8gg
8aa
8ddd
8eee
=3
4.ddd
24bb
24ddd
24bb
=4
2aa}
=5
{8gg
8aa
8ddd
16aa
16bb
=6
16bb
16aa
4.gg}
=7
{8gg
8aa
16ddd
16bb
[8aa
=8
4.aa]
16bb
16aa
8gg
8ee
=9
*M2/4
16gg
16gg
8ee
4r}
=10
{16ddd
16bb
4aa
24aa
24bb
24aa
=11
2gg}
=12
{16aa
16aa
16aa
16bb
16gg
16ee
16gg
16aa
=13
*M3/4
8aa
16gg
16ee
16aa
16gg
4.ee}
=14
*M2/4
{8gg
8aa
16ddd
16bb
[8aa
=15
8aa]
16bb
16aa
8gg
8ee
=16
8gg
16aa
16bb
16aa
16gg
16ee
16gg
=17
4.dd
8ee
=18
2dd}
=19
{8ee
16gg
16ee
8dd
8dd
=20
8ee
16ee
16gg
4aa}
=21
{8aa
16ddd
16bb
8aa
16aa
16gg
=22
8aa
16ddd
16bb
8aa
16aa
16gg
=23
8ee
16gg
16ee
4dd}
=24
{16ee
16ee
16gg
16ee
8dd
8dd
=25
16ee
16ee
16gg
16ee
8dd
8dd}
=26
*M3/4
{8ee
16ee
16gg
4.aa
16gg
16ee
=27
*M2/4
8gg
16aa
16bb
16aa
16gg
16ee
16gg
=28
4.dd
8ee
=29
2dd}
==
!!!AGN: Haozi, Cheshui haozi
!!!AMT: irregular
!!!AIN: vox
!!!EED: Helmut Schaffrath
!!!EEV: 1.0
*-
!!!ONB: Tied note syntax fixed by Craig Sapp, 2004/05/03/
